!!!OTL: Graf und Nonne (Die Nonne) Als ich eyn junger G'selle war
!!!ARE: Europa, Mitteleuropa, Deutschland
!!!YOR: 8, S. 295
!!    1777 gedruckt in Berlin und Stettin
!!!SCT: Q1155b.
!!!YEM: Copyright 1995, estate of Helmut Schaffrath.
**kern
*ICvox
*Ivox
*M2/4
*k[f#]
*G:
{8d
=1
8g
8b
8b
8a
=2
8a
8g
8g}
{8g
=3
8b
8dd
8dd
8b
=4
4a
8r}
{8g
=5
8b
8dd
8dd
8dd
=6
4dd
4b}
=7
{4gg
4ee
=8
4dd
8b}
{8dd
=9
8cc
8a
8g
8f#
=10
4g
8r}
==
!!!AGN: ???
!! Melodievergleich zu Q0155c., anderes Lied "Der Tod von Basel" .
!!    Schlusspause ergaenzt.
!!!ONB: ESAC (Essen Associative Code) Database: BALLADE
!!!AMT: simple duple
!!!AIN: vox
!!!EED: Helmut Schaffrath
!!!EEV: 1.0
*-
